dist/img/artist-plug.svg

<svg width="290" height="181" viewBox="0 0 290 181" fill="none" xmlns="http://www.w3.org/2000/svg">
<rect width="290" height="181" fill="#ECECEC"/>
<path d="M97.2051 153H94.7881L91.5713 147.744L88.3281 153H86.0781L90.3408 146.338L86.3506 140.15H88.6885L91.6592 145.011L94.6299 140.15H96.8975L92.8809 146.373L97.2051 153ZM102.549 149.054V147.296H107.066V149.054H102.549ZM123.555 153H121.138L117.921 147.744L114.678 153H112.428L116.69 146.338L112.7 140.15H115.038L118.009 145.011L120.979 140.15H123.247L119.23 146.373L123.555 153ZM123.59 143.279H125.84L127.817 148.79C128.116 149.575 128.315 150.313 128.415 151.005H128.485C128.538 150.683 128.635 150.293 128.775 149.836C128.916 149.373 129.66 147.188 131.008 143.279H133.24L129.083 154.292C128.327 156.313 127.067 157.324 125.304 157.324C124.847 157.324 124.401 157.274 123.968 157.175V155.54C124.278 155.61 124.633 155.646 125.031 155.646C126.027 155.646 126.728 155.068 127.132 153.914L127.492 153L123.59 143.279ZM144.042 156.437H142.117V153H135.455V156.437H133.548V151.4H134.339C135.03 150.41 135.578 149.215 135.982 147.814C136.393 146.408 136.636 144.896 136.712 143.279H142.618V151.4H144.042V156.437ZM140.588 151.4V144.861H138.496C138.385 146.068 138.15 147.258 137.793 148.43C137.441 149.602 137.011 150.592 136.501 151.4H140.588ZM154.466 148.122C154.466 149.71 154.059 150.949 153.244 151.84C152.43 152.73 151.296 153.176 149.843 153.176C148.935 153.176 148.132 152.971 147.435 152.561C146.737 152.15 146.201 151.562 145.826 150.794C145.451 150.026 145.264 149.136 145.264 148.122C145.264 146.546 145.668 145.315 146.477 144.431C147.285 143.546 148.425 143.104 149.896 143.104C151.302 143.104 152.415 143.558 153.235 144.466C154.056 145.368 154.466 146.587 154.466 148.122ZM147.391 148.122C147.391 150.366 148.22 151.488 149.878 151.488C151.519 151.488 152.339 150.366 152.339 148.122C152.339 145.901 151.513 144.791 149.86 144.791C148.993 144.791 148.363 145.078 147.971 145.652C147.584 146.227 147.391 147.05 147.391 148.122ZM161.638 147.999V143.279H163.562V147.999L167.307 143.279H169.486L165.663 147.981L169.829 153H167.553L163.562 148.069V153H161.638V148.069L157.656 153H155.389L159.546 147.981L155.731 143.279H157.911L161.638 147.999ZM173.397 143.279V147.182H177.977V143.279H180.042V153H177.977V148.808H173.397V153H171.332V143.279H173.397ZM184.981 143.279V148.263C184.981 148.843 184.935 149.695 184.841 150.82L189.719 143.279H192.241V153H190.255V148.104C190.255 147.835 190.27 147.398 190.299 146.795C190.334 146.191 190.363 145.752 190.387 145.477L185.526 153H183.004V143.279H184.981ZM201.215 143.279H203.482L199.466 147.964L203.825 153H201.452L197.251 148.069V153H195.186V143.279H197.251V147.999L201.215 143.279Z" fill="#666666"/>
<path d="M110.015 44.2206C112.768 44.2206 115.008 41.9803 115.008 39.2272C115.008 36.4741 112.768 34.2339 110.015 34.2339C107.262 34.2339 105.021 36.4741 105.021 39.2272C105.021 41.9803 107.262 44.2206 110.015 44.2206ZM110.015 37.0872C111.195 37.0872 112.155 38.047 112.155 39.2272C112.155 40.4074 111.195 41.3672 110.015 41.3672C108.835 41.3672 107.875 40.4074 107.875 39.2272C107.875 38.047 108.835 37.0872 110.015 37.0872Z" fill="#B6B6B6"/>
<path d="M174.93 63.4806C174.93 66.2337 177.17 68.474 179.923 68.474C182.676 68.474 184.916 66.2337 184.916 63.4806C184.916 60.7275 182.676 58.4873 179.923 58.4873C177.17 58.4873 174.93 60.7275 174.93 63.4806ZM179.923 61.3406C181.103 61.3406 182.063 62.3004 182.063 63.4806C182.063 64.6608 181.103 65.6206 179.923 65.6206C178.743 65.6206 177.783 64.6608 177.783 63.4806C177.783 62.3004 178.743 61.3406 179.923 61.3406Z" fill="#B6B6B6"/>
<path d="M185.629 47.976C186.521 47.976 187.244 47.2528 187.244 46.3607C187.244 45.4686 186.521 44.7454 185.629 44.7454C184.737 44.7454 184.014 45.4686 184.014 46.3607C184.014 47.2528 184.737 47.976 185.629 47.976Z" fill="#B6B6B6"/>
<path d="M117.149 53.6826C118.041 53.6826 118.764 52.9594 118.764 52.0672C118.764 51.1751 118.041 50.4519 117.149 50.4519C116.256 50.4519 115.533 51.1751 115.533 52.0672C115.533 52.9594 116.256 53.6826 117.149 53.6826Z" fill="#B6B6B6"/>
<path d="M169.873 41.4301C170.151 41.7087 170.517 41.8481 170.882 41.8481C171.246 41.8481 171.612 41.7087 171.89 41.4301L173.502 39.818L175.114 41.4301C175.393 41.7087 175.758 41.8481 176.123 41.8481C176.488 41.8481 176.853 41.7087 177.132 41.4301C177.689 40.873 177.689 39.9699 177.132 39.4128L175.52 37.8007L177.132 36.1886C177.689 35.6314 177.689 34.7284 177.132 34.1713C176.575 33.6141 175.672 33.6141 175.114 34.1713L173.502 35.7834L171.89 34.1713C171.333 33.6141 170.43 33.6141 169.873 34.1713C169.316 34.7284 169.316 35.6314 169.873 36.1886L171.485 37.8007L169.873 39.4128C169.316 39.9699 169.316 40.8727 169.873 41.4301Z" fill="#B6B6B6"/>
<path d="M104.246 71.3901C104.525 71.6686 104.89 71.8081 105.255 71.8081C105.619 71.8081 105.985 71.6686 106.263 71.3901L107.875 69.778L109.488 71.3901C109.766 71.6686 110.131 71.8081 110.496 71.8081C110.861 71.8081 111.226 71.6686 111.505 71.3901C112.062 70.833 112.062 69.9299 111.505 69.3728L109.893 67.7607L111.505 66.1485C112.062 65.5914 112.062 64.6883 111.505 64.1312C110.948 63.5741 110.045 63.5741 109.488 64.1312L107.875 65.7433L106.263 64.1312C105.706 63.5741 104.803 63.5741 104.246 64.1312C103.689 64.6883 103.689 65.5914 104.246 66.1485L105.858 67.7607L104.246 69.3728C103.689 69.9299 103.689 70.8326 104.246 71.3901Z" fill="#B6B6B6"/>
<path d="M152.815 72.0406C153.603 72.0406 154.242 71.4018 154.242 70.6139C154.242 69.826 153.603 69.1873 152.815 69.1873C152.027 69.1873 151.389 69.826 151.389 70.6139C151.389 71.4018 152.027 72.0406 152.815 72.0406Z" fill="#B6B6B6"/>
<path d="M138.55 72.0406C139.338 72.0406 139.976 71.4018 139.976 70.6139C139.976 69.826 139.338 69.1873 138.55 69.1873C137.762 69.1873 137.123 69.826 137.123 70.6139C137.123 71.4018 137.762 72.0406 138.55 72.0406Z" fill="#B6B6B6"/>
<path d="M185.058 93.7263C183.248 92.3677 183.096 90.1735 182.921 87.6337C182.646 83.674 182.305 78.7477 174.393 77.7583C170.361 77.2583 166.364 78.5498 163.131 81.4017C160.445 83.7742 158.548 87.0102 157.664 90.5102L152.103 87.9832V86.8323C152.103 86.8191 152.095 86.808 152.095 86.7948C157.555 84.1858 161.707 79.3248 163.391 73.4644C164.339 73.4894 165.213 73.2344 166.075 72.6969C167.399 71.8708 168.295 70.5276 168.47 69.1009C168.647 67.6714 168.204 66.238 167.258 65.1665C166.608 64.4322 165.764 63.9125 164.836 63.6579C164.833 63.4071 164.823 62.4955 164.82 62.4006C164.891 62.2294 164.943 56.0416 164.943 56.0416C165.273 56.0024 165.595 55.9424 165.899 55.8372C166.969 55.4681 167.785 54.7101 168.323 53.5859H168.324C170.181 49.7075 166.864 44.2131 160.563 39.983C161.005 38.8652 161.051 37.6461 160.648 36.5034C160.204 35.2454 159.298 34.2353 158.096 33.6597C156.893 33.0815 155.539 33.0091 154.278 33.4521C153.134 33.8562 152.213 34.6559 151.619 35.6995C144.374 33.4414 138.014 34.301 136.155 38.1794C135.737 39.0532 135.647 39.9663 135.85 40.8504C129.744 43.6421 126.398 48.92 126.424 55.808L126.442 58.1638C126.456 59.497 126.491 61.9947 126.517 62.1063C126.517 62.127 126.532 63.3062 126.532 63.6546C125.674 63.8872 124.892 64.3484 124.257 65.0061C123.308 65.9912 122.812 67.2869 122.861 68.6548C122.914 70.1816 123.78 71.6557 125.176 72.5977C126.058 73.1926 126.943 73.4837 127.904 73.4683C129.396 78.92 133.015 83.4949 137.843 86.2727C137.843 86.2848 137.837 86.2948 137.837 86.3069V87.9829L126.466 93.1503C121.241 95.5257 117.863 100.834 117.863 106.671V118.407C117.863 119.195 118.501 119.833 119.29 119.833H170.65C171.439 119.833 172.077 119.195 172.077 118.407V111.838C172.779 111.926 173.49 111.987 174.217 111.987C180.518 111.987 187.2 107.908 188.809 103.082C189.46 101.127 189.839 97.3126 185.058 93.7263ZM155.226 36.1442C155.767 35.9548 156.346 35.988 156.86 36.232C157.718 36.6439 158.167 37.5545 158.047 38.449C157.463 38.1276 156.865 37.8148 156.244 37.5177C155.63 37.2235 155.017 36.9549 154.406 36.7035C154.636 36.4613 154.902 36.258 155.226 36.1442ZM138.727 39.4113C139.37 38.0724 141.374 37.2934 144.186 37.2934C147.124 37.2934 150.944 38.1433 155.013 40.0911C162.973 43.9056 167.06 49.6152 165.749 52.3544C165.487 52.9019 165.193 53.062 164.966 53.1415C163.305 53.7101 159.367 51.7609 155.187 49.699C154.16 49.1918 153.083 48.6597 151.957 48.1204C150.852 47.5911 149.757 47.0825 148.696 46.5892C144.088 44.4478 139.326 42.2325 138.651 40.3504C138.539 40.0394 138.561 39.758 138.727 39.4113ZM137.299 43.3211C139.301 45.3644 143.036 47.1049 147.492 49.1765C148.545 49.6655 149.631 50.1698 150.725 50.6952C151.84 51.2287 152.907 51.7555 153.924 52.257C157.162 53.8563 159.852 55.1806 162.089 55.7652V61.1598C157.82 64.3698 152.992 65.586 148.43 64.5884C144.339 63.6953 140.947 61.1027 139.124 57.4761C138.917 57.0638 138.522 56.7767 138.067 56.7071C137.608 56.6333 137.147 56.7906 136.827 57.1223C134.986 59.0169 132.299 60.1554 129.31 60.3419C129.309 59.6536 129.301 58.9042 129.293 58.1363L129.275 55.7969C129.248 48.4446 133.538 44.9635 137.299 43.3211ZM130.378 71.553C130.296 71.1532 130.046 70.8076 129.692 70.6029C129.338 70.3996 128.913 70.3603 128.525 70.4873C127.973 70.6753 127.463 70.7006 126.772 70.2323C126.14 69.8061 125.733 69.1623 125.71 68.5535C125.689 67.9657 125.903 67.4096 126.31 66.9873C126.716 66.5665 127.263 66.3339 127.849 66.3339C128.235 66.3339 128.619 66.1695 128.888 65.8938C129.284 65.4865 129.407 65.1369 129.382 63.1899C132.434 63.0187 135.266 62.0232 137.485 60.3376C139.818 63.9057 143.498 66.4331 147.821 67.3761C149.069 67.6493 150.33 67.7845 151.594 67.7845C155.142 67.7834 158.701 66.7031 162.013 64.6462C162.067 65.2982 162.197 65.6102 162.486 65.902C162.753 66.1738 163.134 66.3339 163.516 66.3339C164.129 66.3339 164.714 66.5971 165.119 67.0569C165.531 67.5223 165.715 68.124 165.639 68.7525C165.566 69.3321 165.165 69.9006 164.566 70.2754C163.964 70.6503 163.454 70.7074 162.809 70.4802C162.425 70.3393 161.997 70.3799 161.64 70.5775C161.282 70.7769 161.027 71.1207 160.939 71.5209C159.55 77.8992 154.836 83.1097 148.634 85.1188L148.004 85.325C146.231 85.9003 144.418 85.9213 142.766 85.3878C136.458 83.358 131.711 78.0565 130.378 71.553ZM141.891 88.1045C142.972 88.453 144.097 88.6256 145.238 88.6256C146.449 88.6256 147.676 88.4305 148.885 88.0389L149.249 87.9201V88.4473C149.249 90.8073 147.329 92.7273 144.969 92.7273C142.609 92.7273 140.689 90.8073 140.689 88.4473V87.6316C141.09 87.7885 141.478 87.9715 141.891 88.1045ZM169.222 116.981H160.662V109.847C160.662 109.059 160.024 108.421 159.236 108.421C158.447 108.421 157.809 109.059 157.809 109.847V116.981H130.702V109.847C130.702 109.059 130.064 108.421 129.276 108.421C128.487 108.421 127.849 109.059 127.849 109.847V116.981H120.716V106.672C120.716 101.951 123.437 97.6621 127.647 95.7479L138.299 90.9068C139.306 93.6264 141.904 95.5806 144.969 95.5806C148.034 95.5806 150.632 93.6264 151.639 90.9065L157.175 93.422C157.135 93.9028 157.096 94.384 157.096 94.8673C157.096 102.571 162.211 109.098 169.222 111.24V116.981ZM186.101 102.18C184.888 105.819 179.223 109.134 174.216 109.134C166.349 109.134 159.949 102.734 159.949 94.8673C159.949 90.5776 161.845 86.3436 165.02 83.5417C167.266 81.5589 169.951 80.5057 172.698 80.5057C173.144 80.5057 173.591 80.5335 174.039 80.5892C179.621 81.2872 179.811 84.0317 180.074 87.8299C180.269 90.6597 180.491 93.8668 183.347 96.0082C185.901 97.9239 186.827 100.001 186.101 102.18Z" fill="#B6B6B6"/>
<path d="M179.923 96.3523C177.595 96.3523 175.701 98.2458 175.701 100.574C175.701 102.9 177.595 104.794 179.923 104.794C182.251 104.794 184.144 102.9 184.144 100.574C184.144 98.2458 182.251 96.3523 179.923 96.3523ZM179.923 101.941C179.169 101.941 178.555 101.327 178.555 100.574C178.555 99.8202 179.169 99.2056 179.923 99.2056C180.676 99.2056 181.291 99.8202 181.291 100.574C181.291 101.327 180.676 101.941 179.923 101.941Z" fill="#B6B6B6"/>
<path d="M171.363 82.5732C169.304 82.5732 167.629 84.2478 167.629 86.3072C167.629 88.3666 169.303 90.0411 171.363 90.0411C173.422 90.0411 175.097 88.3666 175.097 86.3072C175.097 84.2478 173.422 82.5732 171.363 82.5732ZM171.363 87.1878C170.878 87.1878 170.482 86.7923 170.482 86.3072C170.482 85.8221 170.878 85.4266 171.363 85.4266C171.848 85.4266 172.243 85.8221 172.243 86.3072C172.243 86.7923 171.848 87.1878 171.363 87.1878Z" fill="#B6B6B6"/>
<path d="M168.677 94.1539C168.677 92.0948 167.002 90.4199 164.943 90.4199C162.884 90.4199 161.209 92.0945 161.209 94.1539C161.209 96.2133 162.884 97.8878 164.943 97.8878C167.002 97.8878 168.677 96.2133 168.677 94.1539ZM164.943 95.0345C164.458 95.0345 164.062 94.6389 164.062 94.1539C164.062 93.6688 164.458 93.2733 164.943 93.2733C165.428 93.2733 165.824 93.6688 165.824 94.1539C165.824 94.6389 165.428 95.0345 164.943 95.0345Z" fill="#B6B6B6"/>
<path d="M169.935 99.6934C167.876 99.6934 166.201 101.368 166.201 103.427C166.201 105.487 167.876 107.161 169.935 107.161C171.995 107.161 173.669 105.487 173.669 103.427C173.669 101.368 171.995 99.6934 169.935 99.6934ZM169.935 104.308C169.45 104.308 169.055 103.912 169.055 103.427C169.055 102.942 169.45 102.547 169.935 102.547C170.42 102.547 170.816 102.942 170.816 103.427C170.816 103.912 170.42 104.308 169.935 104.308Z" fill="#B6B6B6"/>
<path d="M113.9 84.7204C113.636 84.4586 113.367 84.1925 113.105 83.9179C113.105 83.9175 113.104 83.9175 113.104 83.9172C113.104 83.9172 113.104 83.9168 113.104 83.9164C112.01 82.7726 111.282 81.7304 111.282 80.3665C111.282 78.554 110.341 78.0564 109.78 77.9216C107.555 77.3588 104.95 81.7251 103.595 84.3651C102.782 85.9519 101.811 88.1729 101.811 89.7429C101.811 92.5114 103.337 94.9071 105.577 96.204L104.752 114.531C104.685 116.012 105.203 117.445 106.174 118.459C107.021 119.346 108.133 119.834 109.303 119.834C110.473 119.834 111.585 119.346 112.432 118.459C113.403 117.445 113.922 116.013 113.854 114.531L113.029 96.204C115.269 94.9068 116.796 92.511 116.796 89.7429C116.796 87.5876 115.257 86.0636 113.9 84.7204ZM108.578 81.7693C108.843 82.9634 109.424 83.9567 110.097 84.812C109.593 85.1869 109.095 85.3845 108.609 85.4041C107.954 85.4012 107.244 85.0991 106.664 84.6797C107.355 83.4524 108.034 82.462 108.578 81.7693ZM111.004 114.659C111.036 115.366 110.805 116.033 110.37 116.487C110.155 116.713 109.795 116.981 109.303 116.981C108.811 116.981 108.45 116.713 108.236 116.487C107.801 116.033 107.57 115.366 107.602 114.659L108.391 97.1434C108.693 97.1805 108.991 97.2358 109.303 97.2358C109.615 97.2358 109.913 97.1809 110.215 97.1434L111.004 114.659ZM109.303 94.3825C106.745 94.3825 104.663 92.301 104.663 89.7429C104.663 89.3385 104.875 88.4786 105.398 87.2391C106.425 87.8965 107.47 88.2589 108.525 88.2589C108.589 88.2589 108.653 88.2574 108.719 88.2546C109.887 88.2096 111.001 87.7506 112.048 86.9014C113.079 87.9254 113.942 88.8235 113.942 89.7426C113.942 92.301 111.861 94.3825 109.303 94.3825Z" fill="#B6B6B6"/>
</svg>

<svg width="290" height="181" fill="none" xmlns="http://www.w3.org/2000/svg"><path fill="#ECECEC" d="M0 0h290v181H0z"/><path d="M97.205 153h-2.417l-3.217-5.256L88.328 153h-2.25l4.263-6.662-3.99-6.188h2.338l2.97 4.861 2.97-4.861h2.268l-4.016 6.223L97.205 153zm5.344-3.946v-1.758h4.517v1.758h-4.517zM123.555 153h-2.417l-3.217-5.256-3.243 5.256h-2.25l4.262-6.662-3.99-6.188h2.338l2.971 4.861 2.97-4.861h2.268l-4.017 6.223 4.325 6.627zm.035-9.721h2.25l1.977 5.511c.299.785.498 1.523.598 2.215h.07c.053-.322.15-.712.29-1.169.141-.463.885-2.648 2.233-6.557h2.232l-4.157 11.013c-.756 2.021-2.016 3.032-3.779 3.032a5.98 5.98 0 01-1.336-.149v-1.635c.31.07.665.106 1.063.106.996 0 1.697-.578 2.101-1.732l.36-.914-3.902-9.721zm20.452 13.158h-1.925V153h-6.662v3.437h-1.907V151.4h.791c.691-.99 1.239-2.185 1.643-3.586.411-1.406.654-2.918.73-4.535h5.906v8.121h1.424v5.037zm-3.454-5.037v-6.539h-2.092a17.822 17.822 0 01-.703 3.569c-.352 1.172-.782 2.162-1.292 2.97h4.087zm13.878-3.278c0 1.588-.407 2.827-1.222 3.718-.814.89-1.948 1.336-3.401 1.336-.908 0-1.711-.205-2.408-.615-.698-.411-1.234-.999-1.609-1.767-.375-.768-.562-1.658-.562-2.672 0-1.576.404-2.807 1.213-3.691.808-.885 1.948-1.327 3.419-1.327 1.406 0 2.519.454 3.339 1.362.821.902 1.231 2.121 1.231 3.656zm-7.075 0c0 2.244.829 3.366 2.487 3.366 1.641 0 2.461-1.122 2.461-3.366 0-2.221-.826-3.331-2.479-3.331-.867 0-1.497.287-1.889.861-.387.575-.58 1.398-.58 2.47zm14.247-.123v-4.72h1.924v4.72l3.745-4.72h2.179l-3.823 4.702 4.166 5.019h-2.276l-3.991-4.931V153h-1.924v-4.931L157.656 153h-2.267l4.157-5.019-3.815-4.702h2.18l3.727 4.72zm11.759-4.72v3.903h4.58v-3.903h2.065V153h-2.065v-4.192h-4.58V153h-2.065v-9.721h2.065zm11.584 0v4.984c0 .58-.046 1.432-.14 2.557l4.878-7.541h2.522V153h-1.986v-4.896c0-.269.015-.706.044-1.309.035-.604.064-1.043.088-1.318L185.526 153h-2.522v-9.721h1.977zm16.234 0h2.267l-4.016 4.685 4.359 5.036h-2.373l-4.201-4.931V153h-2.065v-9.721h2.065v4.72l3.964-4.72z" fill="#666"/><path d="M110.015 44.22a5 5 0 004.993-4.993 4.999 4.999 0 00-4.993-4.993 5 5 0 00-4.994 4.993 5 5 0 004.994 4.994zm0-7.133c1.18 0 2.14.96 2.14 2.14 0 1.18-.96 2.14-2.14 2.14-1.18 0-2.14-.96-2.14-2.14 0-1.18.96-2.14 2.14-2.14zM174.93 63.48a5 5 0 004.993 4.994 5 5 0 004.993-4.993 4.999 4.999 0 00-4.993-4.994 4.999 4.999 0 00-4.993 4.994zm4.993-2.14c1.18 0 2.14.96 2.14 2.14 0 1.18-.96 2.14-2.14 2.14-1.18 0-2.14-.96-2.14-2.14 0-1.18.96-2.14 2.14-2.14zM185.629 47.976a1.615 1.615 0 100-3.23 1.615 1.615 0 000 3.23zM117.149 53.683a1.615 1.615 0 100-3.23 1.615 1.615 0 000 3.23zM169.873 41.43a1.422 1.422 0 002.017 0l1.612-1.612 1.612 1.612a1.424 1.424 0 002.018 0 1.427 1.427 0 000-2.017L175.52 37.8l1.612-1.612a1.427 1.427 0 10-2.018-2.018l-1.612 1.612-1.612-1.612a1.426 1.426 0 10-2.017 2.018l1.612 1.612-1.612 1.612a1.427 1.427 0 000 2.017zM104.246 71.39a1.424 1.424 0 002.017 0l1.612-1.612 1.613 1.612a1.424 1.424 0 002.017 0 1.427 1.427 0 000-2.017l-1.612-1.612 1.612-1.612a1.427 1.427 0 00-2.017-2.018l-1.613 1.612-1.612-1.612a1.426 1.426 0 10-2.017 2.017l1.612 1.613-1.612 1.612a1.427 1.427 0 000 2.017zM152.815 72.04a1.427 1.427 0 100-2.853 1.427 1.427 0 000 2.854zM138.55 72.04a1.426 1.426 0 100-2.852 1.426 1.426 0 000 2.853z" fill="#B6B6B6"/><path d="M185.058 93.726c-1.81-1.358-1.962-3.552-2.137-6.092-.275-3.96-.616-8.886-8.528-9.876-4.032-.5-8.029.792-11.262 3.644-2.686 2.372-4.583 5.608-5.467 9.108l-5.561-2.527v-1.15c0-.014-.008-.025-.008-.038a21.358 21.358 0 0011.296-13.33c.948.024 1.822-.23 2.684-.768 1.324-.826 2.22-2.17 2.395-3.596a5.014 5.014 0 00-1.212-3.934 5.001 5.001 0 00-2.422-1.51c-.003-.25-.013-1.161-.016-1.256.071-.172.123-6.36.123-6.36.33-.039.652-.099.956-.204 1.07-.369 1.886-1.127 2.424-2.251h.001c1.857-3.878-1.46-9.373-7.761-13.603a4.936 4.936 0 00.085-3.48 4.963 4.963 0 00-2.552-2.843 4.948 4.948 0 00-6.477 2.04c-7.245-2.259-13.605-1.399-15.464 2.48a4.012 4.012 0 00-.305 2.67c-6.106 2.792-9.452 8.07-9.426 14.958l.018 2.356c.014 1.333.049 3.83.075 3.942 0 .021.015 1.2.015 1.549a4.959 4.959 0 00-2.275 1.351 4.96 4.96 0 00-1.396 3.649c.053 1.527.919 3 2.315 3.943.882.595 1.767.886 2.728.87 1.492 5.452 5.111 10.027 9.939 12.805 0 .012-.006.022-.006.034v1.676l-11.371 5.167c-5.225 2.376-8.603 7.684-8.603 13.521v11.736c0 .788.638 1.426 1.427 1.426h51.36c.789 0 1.427-.638 1.427-1.426v-6.569a17.15 17.15 0 002.14.149c6.301 0 12.983-4.079 14.592-8.905.651-1.955 1.03-5.77-3.751-9.356zm-29.832-57.582a2.137 2.137 0 011.634.088 2.138 2.138 0 011.187 2.217 35.595 35.595 0 00-1.803-.931 35.531 35.531 0 00-1.838-.815c.23-.242.496-.445.82-.559zm-16.499 3.267c.643-1.339 2.647-2.118 5.459-2.118 2.938 0 6.758.85 10.827 2.798 7.96 3.815 12.047 9.524 10.736 12.263-.262.548-.556.708-.783.788-1.661.568-5.599-1.381-9.779-3.443-1.027-.507-2.104-1.04-3.23-1.579-1.105-.529-2.2-1.037-3.261-1.53-4.608-2.142-9.37-4.358-10.045-6.24-.112-.31-.09-.592.076-.939zm-1.428 3.91c2.002 2.043 5.737 3.784 10.193 5.855 1.053.49 2.139.994 3.233 1.52 1.115.533 2.182 1.06 3.199 1.561 3.238 1.6 5.928 2.924 8.165 3.508v5.395c-4.269 3.21-9.097 4.426-13.659 3.428-4.091-.893-7.483-3.485-9.306-7.112a1.426 1.426 0 00-2.297-.354c-1.841 1.895-4.528 3.033-7.517 3.22-.001-.688-.009-1.438-.017-2.206l-.018-2.34c-.027-7.351 4.263-10.832 8.024-12.475zm-6.921 28.232a1.43 1.43 0 00-.686-.95 1.443 1.443 0 00-1.167-.116c-.552.188-1.062.214-1.753-.255-.632-.426-1.039-1.07-1.062-1.678a2.13 2.13 0 01.6-1.567c.406-.42.953-.653 1.539-.653.386 0 .77-.165 1.039-.44.396-.407.519-.757.494-2.704 3.052-.171 5.884-1.167 8.103-2.852 2.333 3.568 6.013 6.095 10.336 7.038 1.248.273 2.509.408 3.773.408 3.548 0 7.107-1.08 10.419-3.138.054.652.184.964.473 1.256.267.272.648.432 1.03.432.613 0 1.198.263 1.603.723.412.465.596 1.067.52 1.695-.073.58-.474 1.149-1.073 1.523-.602.375-1.112.432-1.757.205-.384-.14-.812-.1-1.169.097-.358.2-.613.544-.701.944-1.389 6.378-6.103 11.589-12.305 13.598l-.63.206c-1.773.575-3.586.596-5.238.063a18.436 18.436 0 01-12.388-13.835zm11.513 16.552c1.081.348 2.206.52 3.347.52 1.211 0 2.438-.195 3.647-.586l.364-.119v.527c0 2.36-1.92 4.28-4.28 4.28-2.36 0-4.28-1.92-4.28-4.28v-.815c.401.156.789.34 1.202.472zm27.331 28.876h-8.56v-7.134a1.425 1.425 0 10-2.853 0v7.134h-27.107v-7.134a1.425 1.425 0 10-2.853 0v7.134h-7.133v-10.309c0-4.721 2.721-9.01 6.931-10.924l10.652-4.841c1.007 2.72 3.605 4.674 6.67 4.674s5.663-1.955 6.67-4.675l5.536 2.516c-.04.48-.079.962-.079 1.445 0 7.704 5.115 14.231 12.126 16.373v5.741zm16.879-14.801c-1.213 3.639-6.878 6.954-11.885 6.954-7.867 0-14.267-6.4-14.267-14.267 0-4.29 1.896-8.523 5.071-11.325 2.246-1.983 4.931-3.036 7.678-3.036.446 0 .893.028 1.341.083 5.582.698 5.772 3.443 6.035 7.24.195 2.83.417 6.038 3.273 8.18 2.554 1.915 3.48 3.992 2.754 6.171z" fill="#B6B6B6"/><path d="M179.923 96.352a4.226 4.226 0 00-4.222 4.222 4.226 4.226 0 004.222 4.22 4.226 4.226 0 004.221-4.22 4.226 4.226 0 00-4.221-4.222zm0 5.589a1.37 1.37 0 01-1.368-1.367 1.37 1.37 0 011.368-1.368c.753 0 1.368.614 1.368 1.368a1.37 1.37 0 01-1.368 1.367zM171.363 82.573a3.738 3.738 0 00-3.734 3.734 3.737 3.737 0 003.734 3.734 3.738 3.738 0 003.734-3.734 3.738 3.738 0 00-3.734-3.734zm0 4.615a.883.883 0 01-.881-.88.882.882 0 11.881.88zM168.677 94.154a3.738 3.738 0 00-3.734-3.734 3.738 3.738 0 00-3.734 3.734 3.738 3.738 0 003.734 3.734 3.738 3.738 0 003.734-3.734zm-3.734.88a.883.883 0 01-.881-.88c0-.485.396-.88.881-.88s.881.395.881.88-.396.88-.881.88zM169.935 99.693a3.738 3.738 0 00-3.734 3.734 3.738 3.738 0 003.734 3.734 3.737 3.737 0 003.734-3.734 3.737 3.737 0 00-3.734-3.734zm0 4.615a.881.881 0 11.881-.881.883.883 0 01-.881.881zM113.9 84.72c-.264-.261-.533-.528-.795-.802h-.001v-.002c-1.094-1.143-1.822-2.186-1.822-3.55 0-1.812-.941-2.31-1.502-2.444-2.225-.563-4.83 3.803-6.185 6.443-.813 1.587-1.784 3.808-1.784 5.378 0 2.768 1.526 5.164 3.766 6.461l-.825 18.327c-.067 1.481.451 2.914 1.422 3.928.847.887 1.959 1.375 3.129 1.375s2.282-.488 3.129-1.375c.971-1.014 1.49-2.446 1.422-3.928l-.825-18.327c2.24-1.297 3.767-3.693 3.767-6.461 0-2.155-1.539-3.68-2.896-5.023zm-5.322-2.95c.265 1.193.846 2.187 1.519 3.042-.504.375-1.002.573-1.488.592-.655-.003-1.365-.305-1.945-.724a23.39 23.39 0 011.914-2.91zm2.426 32.889c.032.707-.199 1.374-.634 1.828-.215.226-.575.494-1.067.494s-.853-.268-1.067-.494c-.435-.454-.666-1.121-.634-1.828l.789-17.516c.302.037.6.093.912.093.312 0 .61-.055.912-.093l.789 17.516zm-1.701-20.277a4.645 4.645 0 01-4.64-4.64c0-.404.212-1.263.735-2.503 1.027.657 2.072 1.02 3.127 1.02.064 0 .128-.002.194-.004 1.168-.045 2.282-.504 3.329-1.354 1.031 1.024 1.894 1.922 1.894 2.842a4.645 4.645 0 01-4.639 4.64z" fill="#B6B6B6"/></svg>
